X:1
T:Title
%%score ( 1 2 ) ( 3 4 )
L:1/8
Q:1/4=130
M:6/4
K:F
V:1 treble nm="Midi_20"
V:2 treble 
V:3 bass nm="Midi_20"
V:4 bass 
V:1
"^Christmas morn (76. 76. D.)""^E. J. Hopkins\n(1818-1901)" F2 | A4 A2 (A2 G2) A2 | c6 A4 F2 | %3
 G4 G2 (G2 F2) G2 | A6- A4 || F2 | A4 A2 (A2 G2) A2 | c6 E4 F2 | G4 A2 (=B2 A2) B2 | c6- c4 || c2 | %11
 c4 c2 (e2 d2) c2 | c6 A4 F2 | d4 F2 (G2 F2) G2 | A6- A4 || G2 | F4 F2 (F2 G2) F2 | d6 F4 G2 | %18
 A4 A2 (G2 F2) G2 | F6- F4 |] %20
V:2
 C2 | F4 F2 (F2 E2) F2 | F6 F4 F2 | F4 F2 (E2 D2) E2 | F6- F4 || C2 | F4 F2 (F2 E2) F2 | G6 C4 D2 | %8
 E4 E2 F4 F2 | E6- E4 || E2 | E4 E2 (G2 F2) E2 | F6 F4 F2 | F4 D2 (E2 D2) E2 | ^C6- C4 || E2 | %16
 D4 D2 _E4 E2 | D6 D4 F2 | F4 F2 (E2 D2) E2 | F6- F4 |] %20
V:3
 A,2 | C4 C2 D4 D2 | C6 C4 A,2 | D4 D2 C4 C2 | C6- C4 || A,2 | C4 C2 D4 D2 | C6 E4 D2 | %8
 C4 C2 D4 D2 | C6- C4 || C2 | B,4 B,2 B,4 B,2 | A,6 C4 A,2 | B,4 B,2 G,4 G,2 | E,6- E,4 || A,2 | %16
 A,4 A,2 A,4 A,2 | F,6 B,4 D2 | C4 C2 B,4 B,2 | A,6- A,4 |] %20
V:4
 F,2 | F,4 F,2 D,4 D,2 | A,,6 A,,4 D,2 | B,,4 B,,2 C,4 C,2 | F,6- F,4 || F,2 | F,4 F,2 D,4 D,2 | %7
 E,6 A,4 A,2 | G,4 G,2 G,4 G,2 | C,6- C,4 || C2 | G,4 G,2 C,4 C,2 | F,6 F,4 F,2 | %13
 B,,4 B,,2 B,,4 B,,2 | A,,6- A,,4 || ^C,2 | D,4 D,2 C,4 C,2 | B,,6 B,,4 B,,2 | C,4 C,2 C,4 C,2 | %19
 [F,,F,]6- [F,,F,]4 |] %20

